X: 452
T: Mac Donald's Rant
%R: reel
B: "The Compleat Country Dancing-Master" printed by John Walsh, London ca. 1740
S: 6: CCDM2 http://imslp.org/wiki/The_Compleat_Country_Dancing-Master_(Various) V.2 (181)
Z: 2013 John Chambers <jc:trillian.mit.edu>
N: The title has an apostrophe in the index but not on the tune page.  Both have the space after "Mac".
N: Each strain should probably be repeated to make the dance work to once thru the tune.
M: C|
L: 1/8
K: D
% - - - - - - - - - - - - - - - - - - - - - - - - -
[| FA2f/g/ afed | gfed BdBA | FA2f/g/ afed | (e/f/g) (f/g/a) e2e2 |]
[| FA3 F>GAB | G/G/GG2 G>ABG | FA2B ABAF | GAFd TE2D2 |]
[| FA2f/g/ afed | gfed BdBA | FA2f/g/ afed | (e/f/g) (f/g/a) Te2d2 |]
[| fa3 f>gaf | g/g/gg2 g>abg | fa2b abaf | gafg e2d2 |]
% - - - - - - - - - - - - - - - - - - - - - - - - -
%%begintext align
%% The 1st Cu. foots it and casts off .| Then foot it again and the
%% Man casts off and the Wo. casts up :| figure contrary
%% sides :| figure on your own sides :| foot it corners and
%% turn .:| foot it the other corners and turn .:| Hey
%% contrary sides :#: foot it to your Partner and turn.
%%endtext
%%sep 1 8 500

%%sep 1 1 500
%%sep 1 1 500
